build/img/icons/time-icon.svg

<svg width="36" height="36" viewBox="0 0 36 36" fill="none" xmlns="http://www.w3.org/2000/svg">
<path d="M17.6844 29.3689C24.0917 29.3689 29.3802 24.0804 29.3802 17.6844C29.3802 11.2885 24.0804 6 17.6731 6C11.2772 6 6 11.2885 6 17.6844C6 24.0804 11.2885 29.3689 17.6844 29.3689ZM17.6844 27.041C12.4976 27.041 8.35045 22.8712 8.35045 17.6844C8.35045 12.4976 12.4976 8.33915 17.6731 8.33915C22.8599 8.33915 27.0297 12.4976 27.041 17.6844C27.0523 22.8712 22.8712 27.041 17.6844 27.041ZM11.9891 19.1083H17.6731C18.1929 19.1083 18.5884 18.7128 18.5884 18.2042V10.8139C18.5884 10.3054 18.1929 9.90988 17.6731 9.90988C17.1759 9.90988 16.7804 10.3054 16.7804 10.8139V17.3002H11.9891C11.4806 17.3002 11.0851 17.6957 11.0851 18.2042C11.0851 18.7128 11.4806 19.1083 11.9891 19.1083Z" fill="#88AB8E"/>
</svg>

<svg width="36" height="36" fill="none" xmlns="http://www.w3.org/2000/svg"><path d="M17.684 29.369c6.408 0 11.696-5.289 11.696-11.685C29.38 11.288 24.08 6 17.673 6 11.277 6 6 11.289 6 17.684 6 24.08 11.289 29.37 17.684 29.37Zm0-2.328a9.313 9.313 0 0 1-9.334-9.357 9.3 9.3 0 0 1 9.323-9.345 9.34 9.34 0 0 1 9.368 9.345c.011 5.187-4.17 9.357-9.357 9.357Zm-5.695-7.933h5.684c.52 0 .915-.395.915-.904v-7.39a.895.895 0 0 0-.915-.904.89.89 0 0 0-.893.904V17.3h-4.79a.892.892 0 0 0-.905.904c0 .509.396.904.904.904Z" fill="#88AB8E"/></svg>
